svg/death_star_variant.svg

<svg xmlns="http://www.w3.org/2000/svg" viewBox="0 0 24 24"><path d="M2.05 13h19.89c-.06.69-.2 1.36-.4 2H14v2h3v2h-2v2h-2.5v1H12c-5.18 0-9.45-3.95-9.95-9m19.89-2H2.05c.5-5.05 4.77-9 9.95-9 1.62 0 3.15.39 4.5 1.08V5h2v2H20v2h1.54c.2.64.34 1.31.4 2M12 6.75a2.5 2.5 0 0 0-2.5-2.5A2.5 2.5 0 0 0 7 6.75a2.5 2.5 0 0 0 2.5 2.5 2.5 2.5 0 0 0 2.5-2.5"/></svg>

<?xml version="1.0" encoding="UTF-8"?><!DOCTYPE svg PUBLIC "-//W3C//DTD SVG 1.1//EN" "http://www.w3.org/Graphics/SVG/1.1/DTD/svg11.dtd"><svg xmlns="http://www.w3.org/2000/svg" xmlns:xlink="http://www.w3.org/1999/xlink" version="1.1" id="mdi-death-star-variant" width="24" height="24" viewBox="0 0 24 24"><path d="M2.05,13H21.94C21.88,13.69 21.74,14.36 21.54,15H14V17H17V19H15V21H12.5V22C12.33,22 12.17,22 12,22C6.82,22 2.55,18.05 2.05,13M21.94,11H2.05C2.55,5.95 6.82,2 12,2C13.62,2 15.15,2.39 16.5,3.08V5H18.5V7H20V9H21.54C21.74,9.64 21.88,10.31 21.94,11M12,6.75A2.5,2.5 0 0,0 9.5,4.25A2.5,2.5 0 0,0 7,6.75A2.5,2.5 0 0,0 9.5,9.25A2.5,2.5 0 0,0 12,6.75Z" /></svg>
